packages/ui-icons/svg/Line/files-copyright.svg

<svg viewBox="0 0 1920 1920" version="1.1" xmlns="http://www.w3.org/2000/svg">
    <path d="M960,0 C1489.35529,0 1920,430.644706 1920,960 C1920,1489.35529 1489.35529,1920 960,1920 C430.644706,1920 0,1489.35529 0,960 C0,430.644706 430.644706,0 960,0 Z M960,112.941176 C492.875294,112.941176 112.941176,492.875294 112.941176,960 C112.941176,1427.12471 492.875294,1807.05882 960,1807.05882 C1427.12471,1807.05882 1807.05882,1427.12471 1807.05882,960 C1807.05882,492.875294 1427.12471,112.941176 960,112.941176 Z M969.118383,733.000074 C1059.70534,732.940603 1124.52027,768.788696 1163.68471,839.072008 L1163.68471,839.072008 L1163.74412,839.072008 L1065.80377,890.215732 C1055.28051,868.431509 1042.48498,853.146691 1027.29742,844.409034 C1011.99013,835.671377 997.879305,831.302999 984.844297,831.302999 C919.550425,831.302999 886.843621,874.511917 886.843621,960.989224 C886.843621,1000.30823 895.154912,1031.72667 911.657759,1055.30582 C928.160606,1078.94535 952.556119,1090.73492 984.844297,1090.73492 C1027.41716,1090.73492 1057.49247,1069.78869 1074.89199,1027.83676 L1074.89199,1027.83676 L1165,1073.6786 C1145.86656,1109.52579 1119.31851,1137.71301 1085.35583,1158.17987 C1051.39405,1178.76747 1013.96353,1189 973.004848,1189 C907.711876,1189 855.093804,1168.88906 815.032695,1128.67259 C775.031004,1088.57596 755,1032.6755 755,961.039684 C755,891.140228 775.210158,835.654256 815.75021,794.659262 C856.169626,753.545327 907.352669,733.000074 969.118383,733.000074 Z" stroke="#979797" stroke-width="1" fill-rule="evenodd"/>
</svg>

<svg viewBox="0 0 1920 1920" version="1.1" xmlns="http://www.w3.org/2000/svg">
    <path d="M960 0c529.355 0 960 430.645 960 960s-430.645 960-960 960S0 1489.355 0 960 430.645 0 960 0zm0 1807.059c467.125 0 847.059-379.934 847.059-847.059 0-467.125-379.934-847.059-847.059-847.059-467.125 0-847.059 379.934-847.059 847.059 0 467.125 379.934 847.059 847.059 847.059zm24.844-716.324c42.573 0 72.648-20.946 90.048-62.898l90.108 45.842c-19.133 35.847-45.681 64.034-79.644 84.5-33.962 20.588-71.392 30.821-112.351 30.821-65.293 0-117.911-20.11-157.972-60.327C775.03 1088.576 755 1032.676 755 961.04c0-69.9 20.21-125.386 60.75-166.38C856.17 753.544 907.353 733 969.118 733c90.587-.06 155.402 35.789 194.567 106.072h.06l-97.941 51.144c-10.523-21.784-23.319-37.07-38.507-45.807-15.307-8.738-29.418-13.106-42.453-13.106-65.294 0-98 43.209-98 129.686 0 39.32 8.31 70.738 24.814 94.317 16.503 23.64 40.898 35.429 73.186 35.429z" stroke="#979797" stroke-width="1" fill-rule="evenodd"/>
</svg>
